X:145
T: Et war e Medchen zu Gtzen (2-36), S. 94
N: K1120
O: Luxemburg
S: KINTZELE, Guillaume: An der Ucht, Bd. 2, Luxemburg 1927]
R: Spottlied, bei Thill unter Liebeslied]
M: 6/8
L: 1/16
K: F
C2 | F4F2F2E2F2 | G4E2C4C2 | F6z4
C2 | F2F2F2F2E2F2 | G4E2C4C2 | F6z4
A2 | A4A2A2G2A2 | B6A4A2 | G4
GGG2F2G2 | c4A2F4
c2 | A4A2G4G2 | F6
G6 | A2B2A2G2F2G2 | F6z4

@@@ Tune index: 8199
